X: 42417
T: West End, The
R: hornpipe
M: 4/4
K: Dmajor
|:A>G|F>D F>A d2d2|c>d e>f g2g2|f>a f>d B>f e>d|c2 A2A2 A>G|
F>D F>A d2d2|c>d e>f g2g2|f>a f>d B>g e>c|d2d2d2:|
|:f>g|a>fd>f a>f d>f|g>e c>e g>e c>e|a>f d>f a>f d>f|c2 A2A2 A>G|
F>D F>A d2d2|c>d e>f g2g2|f>a f>d B>g e>c|d2d2d2:|

